src/images/icons/monthly-yield.svg

<svg width="19" height="20" viewBox="0 0 19 20" fill="none" xmlns="http://www.w3.org/2000/svg">
<path d="M11.1666 8.5C11.1666 9.88071 8.92805 11 6.16663 11C3.4052 11 1.16663 9.88071 1.16663 8.5M11.1666 8.5C11.1666 7.11929 8.92805 6 6.16663 6C3.4052 6 1.16663 7.11929 1.16663 8.5M11.1666 8.5V12.5M1.16663 8.5V12.5M17.1666 3.5C17.1666 2.11929 14.9281 1 12.1666 1C10.1875 1 8.47699 1.57493 7.66663 2.40897M17.1666 3.5C17.1666 4.42535 16.1611 5.23328 14.6666 5.66554M17.1666 3.5V12C17.1666 12.7403 16.1611 13.3866 14.6666 13.7324M17.1666 8C17.1666 8.75669 16.1161 9.41522 14.5666 9.75498M11.1666 12.5C11.1666 13.8807 8.92805 15 6.16663 15C3.4052 15 1.16663 13.8807 1.16663 12.5M11.1666 12.5V16.5C11.1666 17.8807 8.92805 19 6.16663 19C3.4052 19 1.16663 17.8807 1.16663 16.5V12.5" stroke="#5C70D6" stroke-width="2" stroke-linecap="round" stroke-linejoin="round"/>
</svg>

<svg xmlns="http://www.w3.org/2000/svg" width="19" height="20" fill="none"><path stroke="#5C70D6" stroke-linecap="round" stroke-linejoin="round" stroke-width="2" d="M11.167 8.5c0 1.38-2.239 2.5-5 2.5s-5-1.12-5-2.5m10 0c0-1.38-2.239-2.5-5-2.5s-5 1.12-5 2.5m10 0v4m-10-4v4m16-9c0-1.38-2.239-2.5-5-2.5-1.98 0-3.69.575-4.5 1.409m9.5 1.091c0 .925-1.006 1.733-2.5 2.166m2.5-2.166V12c0 .74-1.006 1.387-2.5 1.732M17.167 8c0 .757-1.05 1.415-2.6 1.755m-3.4 2.745c0 1.38-2.239 2.5-5 2.5s-5-1.12-5-2.5m10 0v4c0 1.38-2.239 2.5-5 2.5s-5-1.12-5-2.5v-4"/></svg>
